X:1
T:The Abbey Reel
R:reel
O:Scotland, (Ireland)
M:C|
L:1/8
K:Ador
~A3 B A2  GE | A2 GA BddB | ~A3B    AGEF |1 ~G3 A BedB :|2 ~G3 A Bd ~d2 ||
eg ~g2 a2 ba | gabg  aged | eg ~g2 a2 ga | bgaf   gedg |
eg ~g2  agbg | agbg  aged | eg ~g2 a2 ga | bgaf   gedB |
